svgs/duotone/battery-full.svg

<svg xmlns="http://www.w3.org/2000/svg" viewBox="0 0 576 512"><!--! Font Awesome Pro 6.4.0 by @fontawesome - https://fontawesome.com License - https://fontawesome.com/license (Commercial License) Copyright 2023 Fonticons, Inc. --><defs><style>.fa-secondary{opacity:.4}</style></defs><path class="fa-primary" d="M96 192H448V320H96z"/><path class="fa-secondary" d="M80 160c-8.8 0-16 7.2-16 16V336c0 8.8 7.2 16 16 16H464c8.8 0 16-7.2 16-16V176c0-8.8-7.2-16-16-16H80zM0 176c0-44.2 35.8-80 80-80H464c44.2 0 80 35.8 80 80v16c17.7 0 32 14.3 32 32v64c0 17.7-14.3 32-32 32v16c0 44.2-35.8 80-80 80H80c-44.2 0-80-35.8-80-80V176z"/></svg>

<svg xmlns="http://www.w3.org/2000/svg" viewBox="0 0 576 512"><!--! Font Awesome Pro 6.3.0 by @fontawesome - https://fontawesome.com License - https://fontawesome.com/license (Commercial License) Copyright 2023 Fonticons, Inc. --><defs><style>.fa-secondary{opacity:.4}</style></defs><path class="fa-primary" d="M96 192H448V320H96V192z"/><path class="fa-secondary" d="M464 96C508.2 96 544 131.8 544 176V192C561.7 192 576 206.3 576 224V288C576 305.7 561.7 320 544 320V336C544 380.2 508.2 416 464 416H80C35.82 416 0 380.2 0 336V176C0 131.8 35.82 96 80 96H464zM64 336C64 344.8 71.16 352 80 352H464C472.8 352 480 344.8 480 336V176C480 167.2 472.8 160 464 160H80C71.16 160 64 167.2 64 176V336z"/></svg>
